X:1
T:Title
%%score { ( 1 4 ) | ( 2 3 ) }
L:1/8
M:6/8
K:A
V:1 treble nm="Grand Piano"
V:4 treble 
V:2 bass 
V:3 bass 
V:1
 z3 z2[Q:1/4=95] E | [A,EA]2 [A,EA] [EB]2 [EB] | [Ec]3 [=Ge]2 [Fd] | c2 c BAB | c3- c2 E | %5
 [A,EA]2 [A,EA] B2 B | c2 [=Ge] [Fd]2 [FB] | A2 c B2 G | [A,CA]6 | [ce]3 [Ac]de | [Bd]6 | %11
 [Bd]3 [GB]cd | [Ac]6 | [Ec]3 [EB]2 [EA] | [FA]3 .[Fd]3 | c2 c BAG |[M:5/8] [CA]-[CA]- [CA]3 |] %17
V:2
 z3 z2 E, | C,2 C, [E,G,]2 [E,G,] | A,3 [C,A,]2 [D,A,] | [E,A,E]2 [E,A,E] [E,E]-[E,=G,E][E,^G,E] | %4
 [A,E]3- [A,E]2 E, | C,2 C, [E,G,E]2 [E,G,E] | [A,E]2 [C,A,] [D,A,]2 [D,D] | %7
 [E,CE]2 [E,A,E] [E,D]2 [E,B,D] | A,,6 | A,3 z[K:treble] Bc | E,E,E, .E,3 | %11
 [E,B,E]3 z[K:treble] AB | [A,,A,]C,E, .A,3 | [A,,A,]3 [B,,G,]2 [C,A,] | [D,A,]3 .[D,A,]3 | %15
 [E,A,E]2 [E,A,E] [E,G,D][E,A,C][E,B,D] |[M:5/8] [A,,A,]-[A,,A,]- [A,,A,]3 |] %17
V:3
 x6 | x6 | x6 | z3 .G,3 | x6 | x6 | x6 | x6 | x6 | z3 [A,,A,]3[K:treble] | x6 | %11
 z3 [E,B,E]3[K:treble] | x6 | x6 | x6 | x6 |[M:5/8] x5 |] %17
V:4
 x6 | x6 | x6 | x6 | x6 | x6 | x6 | x6 | x6 | x6 | z G,B, .E3 | x6 | z A,A, z3 | x6 | x6 | x6 | %16
[M:5/8] x5 |] %17

